X: 191354
T: Sligo Maid
S: "Ceol Rince na hEireann" 1/124
Z: B.Black
L: 1/8
M: 4/4
R: reel
K: Ador
A2 BA (3B^cd ef|gedB AGEF|G2 DB, G,A,B,D|DEGA BAGB|
A2 BA (3B^cd ef|gedB AGEG|BGAF GEDB,|1 DEGA BAdB :|2\
DEGA BA A2||
(3aba gb a2 ga|(3bag (3agf gedg|eggf gage|dg g2 dgbg|
eaag a2 ga|(3bag (3agf gedg|egge dcBd|gedB BA A2 :|
